public/assets/images/sullyOrganizeStore.svg

<svg width="51" height="50" viewBox="0 0 51 50" fill="none" xmlns="http://www.w3.org/2000/svg">
<path d="M2 25.25L7.25 20.0833M7.25 20.0833L25.625 2L44 20.0833M7.25 20.0833V45.9167C7.25 46.6018 7.52656 47.2589 8.01885 47.7434C8.51113 48.2278 9.17881 48.5 9.875 48.5H17.75M44 20.0833L49.25 25.25M44 20.0833V45.9167C44 46.6018 43.7234 47.2589 43.2312 47.7434C42.7389 48.2278 42.0712 48.5 41.375 48.5H33.5M17.75 48.5C18.4462 48.5 19.1139 48.2278 19.6062 47.7434C20.0984 47.2589 20.375 46.6018 20.375 45.9167V35.5833C20.375 34.8982 20.6516 34.2411 21.1438 33.7566C21.6361 33.2722 22.3038 33 23 33H28.25C28.9462 33 29.6139 33.2722 30.1062 33.7566C30.5984 34.2411 30.875 34.8982 30.875 35.5833V45.9167C30.875 46.6018 31.1516 47.2589 31.6438 47.7434C32.1361 48.2278 32.8038 48.5 33.5 48.5M17.75 48.5H33.5" stroke="#FF588A" stroke-width="3" stroke-linecap="round" stroke-linejoin="round"/>
</svg>

<svg xmlns="http://www.w3.org/2000/svg" width="51" height="50" fill="none"><path stroke="#FF588A" stroke-linecap="round" stroke-linejoin="round" stroke-width="3" d="m2 25.25 5.25-5.167m0 0L25.625 2 44 20.083m-36.75 0v25.834c0 .685.277 1.342.769 1.826.492.485 1.16.757 1.856.757h7.875M44 20.083l5.25 5.167M44 20.083v25.834c0 .685-.277 1.342-.769 1.826a2.647 2.647 0 0 1-1.856.757H33.5m-15.75 0c.696 0 1.364-.272 1.856-.757a2.563 2.563 0 0 0 .769-1.826V35.583c0-.685.277-1.342.769-1.826A2.647 2.647 0 0 1 23 33h5.25c.696 0 1.364.272 1.856.757.492.484.769 1.141.769 1.826v10.334c0 .685.277 1.342.769 1.826.492.485 1.16.757 1.856.757m-15.75 0H33.5"/></svg>
